src/pos-icons/bag-carry-on.svg

<svg height="24" viewBox="0 0 24 24" width="24" xmlns="http://www.w3.org/2000/svg"><path d="m14.6 21.4c.4.4.8.6 1.4.6s1-.2 1.4-.6.6-.8.6-1.4-.2-1-.6-1.4-.9-.6-1.4-.6-1 .2-1.4.6-.6.8-.6 1.4.2 1 .6 1.4m-8.6-2.4c0 .5.2 1 .6 1.4s.9.6 1.4.6v-14c-.5 0-1 .2-1.4.6s-.6.9-.6 1.4zm10-17h-4c0 .5.2 1 .6 1.4s.9.6 1.4.6v3h-5v14h4.2c-.2-.5-.2-.8-.2-1 0-.8.3-1.5.9-2.1s1.3-.9 2.1-.9z"/></svg>

<?xml version="1.0" encoding="UTF-8"?><!DOCTYPE svg PUBLIC "-//W3C//DTD SVG 1.1//EN" "http://www.w3.org/Graphics/SVG/1.1/DTD/svg11.dtd"><svg xmlns="http://www.w3.org/2000/svg" xmlns:xlink="http://www.w3.org/1999/xlink" version="1.1" id="mdi-bag-carry-on" width="24" height="24" viewBox="0 0 24 24"><path d="M14.6 21.4C15 21.8 15.4 22 16 22S17 21.8 17.4 21.4 18 20.6 18 20 17.8 19 17.4 18.6 16.5 18 16 18 15 18.2 14.6 18.6 14 19.4 14 20 14.2 21 14.6 21.4M6 19C6 19.5 6.2 20 6.6 20.4C7 20.8 7.5 21 8 21V7C7.5 7 7 7.2 6.6 7.6C6.2 8 6 8.5 6 9V19M16 2H12C12 2.5 12.2 3 12.6 3.4C13 3.8 13.5 4 14 4V7H9V21H13.2C13 20.5 13 20.2 13 20C13 19.2 13.3 18.5 13.9 17.9C14.5 17.3 15.2 17 16 17V2Z" /></svg>
